X: 2
T: The Maple Leaf
R: reel
M: 4/4
L: 1/8
K: Edor
|: "Em" E2 EF GE~E2 | "G" B2AB "Am" AGED | "Em" E2EF GFGA| "G" B2dB "Am"AGED |
"Em" E2 EF GE~E2 | "G" B2AB "Am" AGED | "Em" Be ~e2 "G" BAGB | "Am" =cABG "C"AGED :|
|: "Em" Be ~e2 eg ~g2|"Em" Be ~e2 edBA |"Em" Be ~e2 eg ~g2| "D" ~a3 e "Bm"fedA |
"Em" Be ~e2 eg ~g2|"Em" Be ~e2 edBA | "Am" ae~e2 "Bm" fedB |"Am" =cABG "C"AGED :|


Tune 1050	Setting 27139

